img/instagram.svg

<svg width="20" height="20" viewBox="0 0 20 20" fill="none" xmlns="http://www.w3.org/2000/svg">
<path d="M17.4558 6.92084C17.4474 6.28969 17.3293 5.66482 17.1067 5.07417C16.9136 4.57596 16.6188 4.1235 16.241 3.74569C15.8632 3.36789 15.4107 3.07304 14.9125 2.88C14.3294 2.66113 13.7135 2.54279 13.0908 2.53C12.2892 2.49417 12.035 2.48417 10 2.48417C7.965 2.48417 7.70416 2.48417 6.90833 2.53C6.28596 2.54288 5.67029 2.66123 5.0875 2.88C4.58921 3.07291 4.13668 3.36771 3.75886 3.74553C3.38103 4.12335 3.08624 4.57588 2.89333 5.07417C2.67402 5.65678 2.55593 6.27259 2.54416 6.895C2.50833 7.6975 2.4975 7.95167 2.4975 9.98667C2.4975 12.0217 2.4975 12.2817 2.54416 13.0783C2.55666 13.7017 2.67416 14.3167 2.89333 14.9008C3.08656 15.399 3.38158 15.8513 3.75953 16.229C4.13748 16.6066 4.59005 16.9013 5.08833 17.0942C5.66953 17.3218 6.28531 17.4487 6.90916 17.4692C7.71166 17.505 7.96583 17.5158 10.0008 17.5158C12.0358 17.5158 12.2967 17.5158 13.0925 17.4692C13.7151 17.4569 14.3311 17.3388 14.9142 17.12C15.4122 16.9267 15.8646 16.6318 16.2424 16.254C16.6201 15.8763 16.9151 15.4239 17.1083 14.9258C17.3275 14.3425 17.445 13.7275 17.4575 13.1033C17.4933 12.3017 17.5042 12.0475 17.5042 10.0117C17.5025 7.97667 17.5025 7.71834 17.4558 6.92084ZM9.995 13.835C7.86666 13.835 6.1425 12.1108 6.1425 9.9825C6.1425 7.85417 7.86666 6.13 9.995 6.13C11.0167 6.13 11.9966 6.53589 12.7191 7.25837C13.4416 7.98086 13.8475 8.96076 13.8475 9.9825C13.8475 11.0042 13.4416 11.9841 12.7191 12.7066C11.9966 13.4291 11.0167 13.835 9.995 13.835ZM14.0008 6.88583C13.8828 6.88594 13.766 6.86278 13.6569 6.81768C13.5479 6.77257 13.4488 6.7064 13.3654 6.62296C13.2819 6.53952 13.2158 6.44045 13.1707 6.33141C13.1255 6.22237 13.1024 6.1055 13.1025 5.9875C13.1025 5.86959 13.1257 5.75282 13.1708 5.64388C13.216 5.53494 13.2821 5.43596 13.3655 5.35258C13.4489 5.2692 13.5479 5.20306 13.6568 5.15794C13.7657 5.11281 13.8825 5.08959 14.0004 5.08959C14.1183 5.08959 14.2351 5.11281 14.344 5.15794C14.453 5.20306 14.552 5.2692 14.6353 5.35258C14.7187 5.43596 14.7849 5.53494 14.83 5.64388C14.8751 5.75282 14.8983 5.86959 14.8983 5.9875C14.8983 6.48417 14.4967 6.88583 14.0008 6.88583Z" fill="#1D2947"/>
<path d="M9.99518 12.485C11.3773 12.485 12.4977 11.3646 12.4977 9.98248C12.4977 8.60039 11.3773 7.47998 9.99518 7.47998C8.61308 7.47998 7.49268 8.60039 7.49268 9.98248C7.49268 11.3646 8.61308 12.485 9.99518 12.485Z" fill="#1D2947"/>
</svg>

<svg width="20" height="20" fill="none" xmlns="http://www.w3.org/2000/svg"><path d="M17.456 6.92a5.442 5.442 0 00-.35-1.846 3.843 3.843 0 00-2.194-2.194 5.505 5.505 0 00-1.821-.35c-.802-.036-1.056-.046-3.091-.046s-2.296 0-3.092.046a5.505 5.505 0 00-1.82.35 3.84 3.84 0 00-2.195 2.194 5.462 5.462 0 00-.349 1.821c-.036.803-.046 1.057-.046 3.092s0 2.295.046 3.091c.013.624.13 1.239.35 1.823a3.842 3.842 0 002.194 2.193 5.488 5.488 0 001.821.375c.803.036 1.057.047 3.092.047s2.296 0 3.091-.047a5.494 5.494 0 001.822-.349 3.847 3.847 0 002.194-2.194c.22-.584.337-1.199.35-1.823.035-.801.046-1.056.046-3.091-.002-2.035-.002-2.294-.048-3.091zm-7.461 6.915a3.852 3.852 0 11-.002-7.703 3.852 3.852 0 01.002 7.703zm4.006-6.95a.898.898 0 11-.002-1.795.898.898 0 01.002 1.796z" fill="#1D2947"/><path d="M9.995 12.485a2.502 2.502 0 100-5.005 2.502 2.502 0 000 5.005z" fill="#1D2947"/></svg>
